X: 1
T: Pigtown Fling, The
M: 4/4
L: 1/8
R: Fling... as in, Pigtown *Fling*
K: Gmaj
|:G2g>e d2e>d|B2g>e d>BA>B|G2g>e d2e>d|B>GA>G E*GG2:|
|:B>ee>d e2e>g|f>ed>f e>dB>A|B>ee>d e2e>g|f>ga>f g2g2:|
